X: 547
T: Mrs Wm Lushington's Reel
%R: hornpipe
B: "Twenty Four Country Dances for the Year 1805", Tho. Preston, ed. p.234 #1
F: http://folkopedia.efdss.org/images/archive/0/02/20121211105513%21Preston_24_1805.PDF
Z: 2014 John Chambers <jc:trillian.mit.edu>
M: C
L: 1/8
K: C
|:\
TE>DE>C E>G G2 |    A>cG>c A>cG>c |  E>DE>C E>GG>c    |  A>cG>c   E>DD2  :|
Te>dc>d e>fg>a | {f}e>dc>e e>dd>f | Te>dc>d e>f{f}g>c | .G>.G c>d e>c c>e |
Te>dc>d e>fg>a | {f}e>cg>c a>dd>f |  A>Bc>d e>fg>a    | .G>.G c>d e>c [c2E2G,2] |]
%%begintext align
%% 1st and 2d Cu. set and change sides. back
%% again. lead down the middle up again and
%% allemande.
%%endtext

%%sep 1 1 500
%%sep 1 1 500
